X:20
T:The Ships Are Sailing
R:reel
M:C|
L:1/8
K:Edor
Beed BcdB | AD (3(FED) AD (3(FED) | EDEF GFGA | Beef gfed |
Beed BcdB | AD (3(FED) AD (3(FED) | EDEF GFGA |[1 Beed e2 ed :|[2 Beed e3f |]
|: gfga bgeg | fefg afdf | gfga bgeg | fedf e2 ef |
gfga bgeg | fefg afdf | g2bg f2af |[1 edef gfef :|[2 edef gfed |]

